assets/img/cds-client-first.svg

<svg fill="none" height="495" viewBox="0 0 503 495" width="503" xmlns="http://www.w3.org/2000/svg" xmlns:xlink="http://www.w3.org/1999/xlink"><linearGradient id="a"><stop offset="0" stop-color="#199dff"/><stop offset="1" stop-color="#0083e4"/></linearGradient><linearGradient id="b" gradientUnits="userSpaceOnUse" x1="145.051" x2="145.051" xlink:href="#a" y1="118.759" y2="308.028"/><linearGradient id="c" gradientUnits="userSpaceOnUse" x1="138.209" x2="138.209" xlink:href="#a" y1="381.868" y2="417.618"/><linearGradient id="d" gradientUnits="userSpaceOnUse" x1="128.365" x2="128.365" xlink:href="#a" y1="24.9429" y2="37.7018"/><linearGradient id="e" gradientUnits="userSpaceOnUse" x1="163.928" x2="163.928" xlink:href="#a" y1="24.373" y2="35.8808"/><linearGradient id="f" gradientUnits="userSpaceOnUse" x1="251.243" x2="251.243" xlink:href="#a" y1="0" y2="494.928"/><linearGradient id="g" gradientUnits="userSpaceOnUse" x1="379.364" x2="379.364" xlink:href="#a" y1="112.146" y2="179.635"/><linearGradient id="h" gradientUnits="userSpaceOnUse" x1="147.083" x2="147.083" xlink:href="#a" y1="187.386" y2="234.377"/><path d="m144.549 307.413c1.618.82 3.602.84 5.286-.059 22.801-12.105 42.023-32.07 55.602-57.738 12.723-24.062 17.211-51.93 20.172-78.457.293-2.644-1.266-5.148-3.774-6.055-17.148-6.16-27.551-24.469-26.91-39 .141-3.16-2.297-5.843-5.453-6-32.367-1.656-62.309-1.777-91.5228-.398-3.168.148-5.6133 2.832-5.4805 5.992.7031 16.137-9.7656 33.59-24.887 41.512-1.8555.965-3.0352 2.871-3.082 4.969-1.3672 60.754 31.332 110.69 80.0513 135.23zm-40.676-176.45c25.543-1.043 51.727-.922 79.711.375 1.575 16.562 12.445 34.551 30.094 42.836-2.839 24.078-7.25 48.949-18.414 70.059-11.965 22.617-28.586 40.371-48.203 51.512-42.227-22.52-71.1475-66.059-71.0935-120.07 15.762-9.594 26.5615-27.027 27.9055-44.715z" fill="url(#b)"/><path d="m151.729 399.743c0 9.871-6.054 17.875-13.52 17.875-7.468 0-13.52-8.004-13.52-17.875s6.051-17.875 13.52-17.875c7.465 0 13.52 8.004 13.52 17.875z" fill="url(#c)"/><path d="m115.59 37.6859 26.098-1.2344c3.171-.1484 5.621-2.8477 5.472-6.0156-.152-3.1758-2.832-5.7227-6.019-5.4766l-26.098 1.2344c-3.172.1485-5.621 2.8477-5.473 6.0156.156 3.3203 3.09 5.7109 6.02 5.4766z" fill="url(#d)"/><path d="m164.099 35.8808c3.176 0 5.754-2.5781 5.754-5.7539s-2.578-5.7539-5.754-5.7539h-.687c-3.176 0-5.41 2.5781-5.41 5.7539s2.922 5.7539 6.097 5.7539z" fill="url(#e)"/><path d="m473.859 158.003c-1.015-43.477-.363-55.398-5.812-67.9262-5-11.496-15.047-17.863-26.508-19.34-7.496-3.3398-13.195-2.9844-14.543-3.1367-30.273 1.1445-64.301 2.1641-85.496-.0078-19.504 0-35.375 15.867-35.359 34.9407-2.496 32.707-4.219 65.828-.012 86.758.328 19.223 16.062 34.762 35.141 34.762.782.016 20.23 1.016 60.438.481 11.105 1.011 22.5.945 32.961-.348 16.805-2.078 31.348-8.359 37.07-24.293 2.653-7.387 2.699-15.387 2.535-23.258 3.235 5.527 5.938 12.418 9.747 22.734 10.852 29.793 9.964 69.035-9.086 94.531-6.383-10.043-14.844-17.371-19.383-19.492-33.969-28.277-78.961-22.023-104.54 1.133-20.66 18.797-29.188 49.242-21.566 75.477-12.344 8.254-24.645 16.656-36.883 25.105 3.636-9.567 2.664 9.66-2.493-338.1701-.21-14.262-.996-24.176-12.723-32.19499-3.46-3.3047-7.511-3.8828-12.016-4.0117-95.668-2.285201-198.4595-1.011701-218.7595-1.562501-19.797-.5625-36.66003-.316412-42.75403 7.933601-6.3242 8.26949-2.882801 26.95699-2.882801 36.07799 0 .7656.085941 363.6597-.136719 367.8797-.32031 6.121-.7187483 13.746 3.0586 18.617 5.0039 6.383 14.66395 6.129 22.39495 5.887 12.863-.324 19.281 1.504 78.4615 1.504 29.711-.067 49.289-.633 101.36-1.481-27.738 19.648-27.488 18.938-28.18 21.723-1.883 7.52-5.278 18.477-7.165 26.152-.863 3.477 1.649 6.918 5.254 7.125 10.777.618 20.07 2.762 31.375 3.313 1.047.082 2.371-.227 3.477-.957 4.027-2.68 8.309-4.328 12.668-6.856 7.406 3.368 20 2.989 19.23 2.989 3.062 0 5.602-2.407 5.746-5.477.16-3.289 1.664-7.121 2.613-11.207 5.258-.547 11.469-1.488 15.539-1.68 3.25-.156 5.696-2.945 5.469-6.144-.203-2.942.113-6.133.297-9.078 4.074.058 8.598-.098 11.5.316 3.727.528 6.867-2.551 6.547-6.195-.191-2.156-.039-4.965.086-7.352 2.625.137 8.168-5.144 9.848-6.324 1.531-1.074 12.879-9.629 18.887-13.707 5.589 1.883 11.18 3.77 16.77 5.652 7.16-5.027 14.316-10.059 21.477-15.086 1.804-1.265 8.242-4.226 10.707-6.816 20.113 12.199 47.367 15.289 66.449 10.77 21.258-5.035 49.672-29.527 53.707-58.742 2.324-16.828-.067-36.875-7.532-53.98 24.434-28.531 26.805-74.426 13.98-109.63-6.863-18.625-10.898-28.188-20.961-37.406zm-132.36 54.551c-13.164 0-23.867-10.707-23.867-23.867 0-6.063-5.668-10.992 0-85.719 0-13.1642 10.707-23.8672 23.273-23.8982 21.355 2.2344 55.86 1.1914 86.31.0313 13.164 0 23.87 10.707 23.894 24.3829 2.477 27.547 2.477 56.043-.023 85.199 0 13.164-10.711 23.867-23.871 23.867-3.523.004-48.434 1.422-85.715.004zm-328.4895-197.5302c3.082-4.1641 25.781-3.5508 33.238-3.3398 12.652.3633 220.7295-.4961 223.3295 2.4141 1.52 1.6328.778 5.7422.793 36.699-3-1.918 13.543-.5469-252.0095-.9883-3.1758 0-5.7539 2.5781-5.7539 5.7539s2.5781 5.7539 5.7539 5.7539c264.9595-.4492 249.0295.9492 252.0495-1.0156.286 71.562 3.133 138.73 1.434 304.26-.406-2.777-2.699-4.945-5.59-4.945-265.95975.176-251.4397-.36-253.7997.308-.168-262.9897.2109-314.6597-.418-323.7897-.4063-5.9023-1.2539-18.188.9726-21.109zm18.625 410.0302c-4.4766-.262-16.863.922-18.707-1.446-1.4492-1.968-.3672-6.91-.4727-29.965v-22.832c2.3516.668-11.483975.133 253.8002.313 2.871 0 5.144-2.141 5.578-4.887-.086 8.082-.066 16.23-.172 24.289-16.426 11.371-32.766 22.828-48.957 34.281-62.324.707-124.2499 3.438-191.0699.246zm249.8895 4.961c-1.722 1.199-2.656 3.234-2.441 5.32.293 2.789 0 6.199-.148 9.695-4.039-.05-8.414.09-11.32-.316-3.286-.586-6.684 2.172-6.551 5.894.109 3.137-.285 6.438-.457 10.09-5.582.614-10.805 1.414-14.738 1.594-2.926.137-5.277 2.449-5.473 5.371-.203 3.11-1.621 6.813-2.555 10.75-3.992-.238-8.703-.867-10.934-2.586-1.96-1.511-4.656-1.601-6.714-.211-4.399 2.954-9.262 4.747-14.07 7.696-7.578-.508-14.844-1.789-22.488-2.614 1.519-5.48 3.504-12.223 4.898-17.523 41.617-29.828 108.15-76.488 150.94-105.02 2.211-1.476 3.125-4.269 2.211-6.765-8.25-22.512-1.063-50.836 17.078-67.34 30.055-27.203 81.816-23.16 106.96 19.816-4.293 3.664-8.906 6.488-13.68 8.367-5.309-12.297-18.434-19.309-31.059-15.891-13.914 3.805-21.98 18.824-17.98 33.473 6.476 23.707 37.098 28.09 48.312 6.856 2.098-3.973 3.055-8.375 3.078-12.848 5.801-2.004 11.383-5.133 16.578-9.204 25.145 63.965-47.152 118.28-101.97 79.129-1.809-2.89-5.68-3.582-8.367-1.55-8.492 6.449-21.566 13.496-30.938 20.34-21.652-3.703-16.18-3.637-21.281-1.012-6.059 4.269-3.184 2.238-15.297 10.512-3.985 2.727-7.93 5.426-11.598 7.973zm147.84-104.54c6.942 1.566 10.945.929 13.398.722-2.531 16.582-24.199 16.91-28.656.606-2.738-10.016 3.856-19.824 13.453-19.824 5.204 0 10.141 3.039 12.984 7.848-2.91.16-5.808.062-8.656-.575-3.109-.726-6.179 1.242-6.879 4.344-.691 3.102 1.258 6.184 4.356 6.879z" fill="url(#f)"/><path d="m368.989 113.573 4.485-.477c-10.98 2.016-20.883 9.711-25.234 20.031-5.942 14.082-.75 31.977 11.785 40.719s31.102 7.442 42.312-2.945c11.211-10.387 13.938-28.773 6.246-41.977-7.691-13.207-25.004-19.91-39.594-15.352z" fill="url(#g)"/><path d="m132.54 231.963c1.046 1.465 2.753 2.414 4.683 2.414 4.152 0 2.258-.73 40.703-37.098 2.285-2.211 2.344-5.852.137-8.137-2.215-2.293-5.856-2.343-8.137-.136l-32.059 30.992c-5.422-6.547-6.937-6.442-12.945-14.848-1.851-2.578-5.441-3.192-8.027-1.332-2.586 1.851-3.184 5.445-1.336 8.031 7.566 10.578 10.059 10.43 16.98 20.113z" fill="url(#h)"/></svg>

<svg width="503" height="495" viewBox="0 0 503 495" fill="none" xmlns="http://www.w3.org/2000/svg">
<path d="M144.549 307.413C146.167 308.233 148.151 308.253 149.835 307.354C172.636 295.249 191.858 275.284 205.437 249.616C218.16 225.554 222.648 197.686 225.609 171.159C225.902 168.515 224.343 166.011 221.835 165.104C204.687 158.944 194.284 140.635 194.925 126.104C195.066 122.944 192.628 120.261 189.472 120.104C157.105 118.448 127.163 118.327 97.9492 119.706C94.7812 119.854 92.3359 122.538 92.4687 125.698C93.1718 141.835 82.7031 159.288 67.5817 167.21C65.7262 168.175 64.5465 170.081 64.4997 172.179C63.1325 232.933 95.8317 282.869 144.551 307.409L144.549 307.413ZM103.873 130.963C129.416 129.92 155.6 130.041 183.584 131.338C185.159 147.9 196.029 165.889 213.678 174.174C210.839 198.252 206.428 223.123 195.264 244.233C183.299 266.85 166.678 284.604 147.061 295.745C104.834 273.225 75.9135 229.686 75.9675 175.675C91.7295 166.081 102.529 148.648 103.873 130.96V130.963Z" fill="url(#paint0_linear_4015_608)"/>
<path d="M151.729 399.743C151.729 409.614 145.675 417.618 138.209 417.618C130.741 417.618 124.689 409.614 124.689 399.743C124.689 389.872 130.74 381.868 138.209 381.868C145.674 381.868 151.729 389.872 151.729 399.743Z" fill="url(#paint1_linear_4015_608)"/>
<path d="M115.59 37.6859L141.688 36.4515C144.859 36.3031 147.309 33.6038 147.16 30.4359C147.008 27.2601 144.328 24.7132 141.141 24.9593L115.043 26.1937C111.871 26.3422 109.422 29.0414 109.57 32.2093C109.726 35.5296 112.66 37.9202 115.59 37.6859V37.6859Z" fill="url(#paint2_linear_4015_608)"/>
<path d="M164.099 35.8808C167.275 35.8808 169.853 33.3027 169.853 30.1269C169.853 26.9511 167.275 24.373 164.099 24.373H163.412C160.236 24.373 158.002 26.9511 158.002 30.1269C158.002 33.3027 160.924 35.8808 164.099 35.8808Z" fill="url(#paint3_linear_4015_608)"/>
<path d="M473.859 158.003C472.844 114.526 473.496 102.605 468.047 90.0768C463.047 78.5808 453 72.2138 441.539 70.7368C434.043 67.397 428.344 67.7524 426.996 67.6001C396.723 68.7446 362.695 69.7642 341.5 67.5923C321.996 67.5923 306.125 83.4593 306.141 102.533C303.645 135.24 301.922 168.361 306.129 189.291C306.457 208.514 322.191 224.053 341.27 224.053C342.052 224.069 361.5 225.069 401.708 224.534C412.813 225.545 424.208 225.479 434.669 224.186C451.474 222.108 466.017 215.827 471.739 199.893C474.392 192.506 474.438 184.506 474.274 176.635C477.509 182.162 480.212 189.053 484.021 199.369C494.873 229.162 493.985 268.404 474.935 293.9C468.552 283.857 460.091 276.529 455.552 274.408C421.583 246.131 376.591 252.385 351.012 275.541C330.352 294.338 321.824 324.783 329.446 351.018C317.102 359.272 304.801 367.674 292.563 376.123C296.199 366.556 295.227 385.783 290.07 37.9529C289.86 23.6909 289.074 13.7769 277.347 5.75791C273.887 2.45321 269.836 1.87511 265.331 1.74621C169.663 -0.538991 66.8715 0.734509 46.5715 0.183709C26.7745 -0.378791 9.91147 -0.132703 3.81747 8.11731C-2.50673 16.3868 0.934669 35.0743 0.934669 44.1953C0.934669 44.9609 1.02061 407.855 0.79795 412.075C0.47764 418.196 0.0792017 425.821 3.85655 430.692C8.86045 437.075 18.5205 436.821 26.2515 436.579C39.1145 436.255 45.5325 438.083 104.713 438.083C134.424 438.016 154.002 437.45 206.073 436.602C178.335 456.25 178.585 455.54 177.893 458.325C176.01 465.845 172.615 476.802 170.728 484.477C169.865 487.954 172.377 491.395 175.982 491.602C186.759 492.22 196.052 494.364 207.357 494.915C208.404 494.997 209.728 494.688 210.834 493.958C214.861 491.278 219.143 489.63 223.502 487.102C230.908 490.47 243.502 490.091 242.732 490.091C245.794 490.091 248.334 487.684 248.478 484.614C248.638 481.325 250.142 477.493 251.091 473.407C256.349 472.86 262.56 471.919 266.63 471.727C269.88 471.571 272.326 468.782 272.099 465.583C271.896 462.641 272.212 459.45 272.396 456.505C276.47 456.563 280.994 456.407 283.896 456.821C287.623 457.349 290.763 454.27 290.443 450.626C290.252 448.47 290.404 445.661 290.529 443.274C293.154 443.411 298.697 438.13 300.377 436.95C301.908 435.876 313.256 427.321 319.264 423.243C324.853 425.126 330.444 427.013 336.034 428.895C343.194 423.868 350.35 418.836 357.511 413.809C359.315 412.544 365.753 409.583 368.218 406.993C388.331 419.192 415.585 422.282 434.667 417.763C455.925 412.728 484.339 388.236 488.374 359.021C490.698 342.193 488.307 322.146 480.842 305.041C505.276 276.51 507.647 230.615 494.822 195.411C487.959 176.786 483.924 167.223 473.861 158.005L473.859 158.003ZM341.499 212.554C328.335 212.554 317.632 201.847 317.632 188.687C317.632 182.624 311.964 177.695 317.632 102.968C317.632 89.8038 328.339 79.1008 340.905 79.0698C362.26 81.3042 396.765 80.2612 427.215 79.1011C440.379 79.1011 451.085 89.8081 451.109 103.484C453.586 131.031 453.586 159.527 451.086 188.683C451.086 201.847 440.375 212.55 427.215 212.55C423.692 212.554 378.781 213.972 341.5 212.554L341.499 212.554ZM13.0095 15.0238C16.0915 10.8597 38.7905 11.473 46.2475 11.684C58.8995 12.0473 266.977 11.1879 269.577 14.0981C271.097 15.7309 270.355 19.8403 270.37 50.7971C267.37 48.8791 283.913 50.2502 18.3605 49.8088C15.1847 49.8088 12.6066 52.3869 12.6066 55.5627C12.6066 58.7385 15.1847 61.3166 18.3605 61.3166C283.32 60.8674 267.39 62.2658 270.41 60.301C270.696 131.863 273.543 199.031 271.844 364.561C271.438 361.784 269.145 359.616 266.254 359.616C0.29425 359.792 14.8143 359.256 12.4543 359.924C12.2863 96.9343 12.6652 45.2643 12.0363 36.1343C11.63 30.232 10.7824 17.9463 13.0089 15.0253L13.0095 15.0238ZM31.6345 425.054C27.1579 424.792 14.7715 425.976 12.9275 423.608C11.4783 421.64 12.5603 416.698 12.4548 393.643V370.811C14.8064 371.479 0.970825 370.944 266.255 371.124C269.126 371.124 271.399 368.983 271.833 366.237C271.747 374.319 271.767 382.467 271.661 390.526C255.235 401.897 238.895 413.354 222.704 424.807C160.38 425.514 98.4541 428.245 31.6341 425.053L31.6345 425.054ZM281.524 430.015C279.802 431.214 278.868 433.249 279.083 435.335C279.376 438.124 279.083 441.534 278.935 445.03C274.896 444.98 270.521 445.12 267.615 444.714C264.329 444.128 260.931 446.886 261.064 450.608C261.173 453.745 260.779 457.046 260.607 460.698C255.025 461.312 249.802 462.112 245.869 462.292C242.943 462.429 240.592 464.741 240.396 467.663C240.193 470.773 238.775 474.476 237.841 478.413C233.849 478.175 229.138 477.546 226.907 475.827C224.947 474.316 222.251 474.226 220.193 475.616C215.794 478.57 210.931 480.363 206.123 483.312C198.545 482.804 191.279 481.523 183.635 480.698C185.154 475.218 187.139 468.475 188.533 463.175C230.15 433.347 296.683 386.687 339.473 358.155C341.684 356.679 342.598 353.886 341.684 351.39C333.434 328.878 340.621 300.554 358.762 284.05C388.817 256.847 440.578 260.89 465.722 303.866C461.429 307.53 456.816 310.354 452.042 312.233C446.733 299.936 433.608 292.924 420.983 296.342C407.069 300.147 399.003 315.166 403.003 329.815C409.479 353.522 440.101 357.905 451.315 336.671C453.413 332.698 454.37 328.296 454.393 323.823C460.194 321.819 465.776 318.69 470.971 314.619C496.116 378.584 423.819 432.899 369.001 393.748C367.192 390.858 363.321 390.166 360.634 392.198C352.142 398.647 339.068 405.694 329.696 412.538C308.044 408.835 313.516 408.901 308.415 411.526C302.356 415.795 305.231 413.764 293.118 422.038C289.133 424.765 285.188 427.464 281.52 430.011L281.524 430.015ZM429.364 325.475C436.306 327.041 440.309 326.404 442.762 326.197C440.231 342.779 418.563 343.107 414.106 326.803C411.368 316.787 417.962 306.979 427.559 306.979C432.763 306.979 437.7 310.018 440.543 314.827C437.633 314.987 434.735 314.889 431.887 314.252C428.778 313.526 425.708 315.494 425.008 318.596C424.317 321.698 426.266 324.78 429.364 325.475L429.364 325.475Z" fill="url(#paint4_linear_4015_608)"/>
<path d="M368.989 113.573L373.474 113.096C362.494 115.112 352.591 122.807 348.24 133.127C342.298 147.209 347.49 165.104 360.025 173.846C372.56 182.588 391.127 181.288 402.337 170.901C413.548 160.514 416.275 142.128 408.583 128.924C400.892 115.717 383.579 109.014 368.989 113.572L368.989 113.573Z" fill="url(#paint5_linear_4015_608)"/>
<path d="M132.54 231.963C133.586 233.428 135.293 234.377 137.223 234.377C141.375 234.377 139.481 233.647 177.926 197.279C180.211 195.068 180.27 191.427 178.063 189.142C175.848 186.849 172.207 186.799 169.926 189.006L137.867 219.998C132.445 213.451 130.93 213.556 124.922 205.15C123.071 202.572 119.481 201.958 116.895 203.818C114.309 205.669 113.711 209.263 115.559 211.849C123.125 222.427 125.618 222.279 132.539 231.962L132.54 231.963Z" fill="url(#paint6_linear_4015_608)"/>
<defs>
<linearGradient id="paint0_linear_4015_608" x1="145.051" y1="118.759" x2="145.051" y2="308.028" gradientUnits="userSpaceOnUse">
<stop stop-color="#199DFF"/>
<stop offset="1" stop-color="#0083E4"/>
</linearGradient>
<linearGradient id="paint1_linear_4015_608" x1="138.209" y1="381.868" x2="138.209" y2="417.618" gradientUnits="userSpaceOnUse">
<stop stop-color="#199DFF"/>
<stop offset="1" stop-color="#0083E4"/>
</linearGradient>
<linearGradient id="paint2_linear_4015_608" x1="128.365" y1="24.9429" x2="128.365" y2="37.7018" gradientUnits="userSpaceOnUse">
<stop stop-color="#199DFF"/>
<stop offset="1" stop-color="#0083E4"/>
</linearGradient>
<linearGradient id="paint3_linear_4015_608" x1="163.928" y1="24.373" x2="163.928" y2="35.8808" gradientUnits="userSpaceOnUse">
<stop stop-color="#199DFF"/>
<stop offset="1" stop-color="#0083E4"/>
</linearGradient>
<linearGradient id="paint4_linear_4015_608" x1="251.243" y1="0" x2="251.243" y2="494.928" gradientUnits="userSpaceOnUse">
<stop stop-color="#199DFF"/>
<stop offset="1" stop-color="#0083E4"/>
</linearGradient>
<linearGradient id="paint5_linear_4015_608" x1="379.364" y1="112.146" x2="379.364" y2="179.635" gradientUnits="userSpaceOnUse">
<stop stop-color="#199DFF"/>
<stop offset="1" stop-color="#0083E4"/>
</linearGradient>
<linearGradient id="paint6_linear_4015_608" x1="147.083" y1="187.386" x2="147.083" y2="234.377" gradientUnits="userSpaceOnUse">
<stop stop-color="#199DFF"/>
<stop offset="1" stop-color="#0083E4"/>
</linearGradient>
</defs>
</svg>
